X:281
T: ICH GING WOHL BEI DER NACHT
N: E0157A
O: Europa, Mitteleuropa, Deutschland, Gransee, Roennebeck
R: erzaehlendes Volks - Lied, Scherz, Schwank
M: 6/8
L: 1/16
K: A
E2 | A4A2G4B2 | e4z6
B2 | =c4d2e4c2 | B4d2d4
B2 | =c4d2e4c2 | B4z6
B2 | =c4B2c4d2 | e6B6
=c4B2A4c2 | B4=G2E4
E2 | =c4B2A4cc | B4=G2E4
B2 | =c2B2A2B2A2G2 | A4z6

